ix/bag-2_bold.svg

<svg viewBox="0 0 24 24" fill="none" xmlns="http://www.w3.org/2000/svg" height="1em" width="1em">
  <path d="M19.9597 8.95844C19.2897 8.21844 18.2797 7.78844 16.8797 7.63844V6.87844C16.8797 5.50844 16.2997 4.18844 15.2797 3.26844C14.2497 2.32844 12.9097 1.88844 11.5197 2.01844C9.12975 2.24844 7.11975 4.55844 7.11975 7.05844V7.63844C5.71975 7.78844 4.70975 8.21844 4.03975 8.95844C3.06975 10.0384 3.09975 11.4784 3.20975 12.4784L3.90975 18.0484C4.11975 19.9984 4.90975 21.9984 9.20975 21.9984H14.7897C19.0897 21.9984 19.8797 19.9984 20.0897 18.0584L20.7897 12.4684C20.8997 11.4784 20.9197 10.0384 19.9597 8.95844ZM11.6597 3.40844C12.6597 3.31844 13.6097 3.62844 14.3497 4.29844C15.0797 4.95844 15.4897 5.89844 15.4897 6.87844V7.57844H8.50975V7.05844C8.50975 5.27844 9.97975 3.56844 11.6597 3.40844ZM8.41975 13.1484H8.40975C7.85975 13.1484 7.40975 12.6984 7.40975 12.1484C7.40975 11.5984 7.85975 11.1484 8.40975 11.1484C8.96975 11.1484 9.41975 11.5984 9.41975 12.1484C9.41975 12.6984 8.96975 13.1484 8.41975 13.1484ZM15.4197 13.1484H15.4097C14.8597 13.1484 14.4097 12.6984 14.4097 12.1484C14.4097 11.5984 14.8597 11.1484 15.4097 11.1484C15.9697 11.1484 16.4197 11.5984 16.4197 12.1484C16.4197 12.6984 15.9697 13.1484 15.4197 13.1484Z" fill="#292D32"/>
</svg>

<svg viewBox="0 0 24 24" fill="none" xmlns="http://www.w3.org/2000/svg" height="1em" width="1em">
  <path d="M19.96 8.958c-.67-.74-1.68-1.17-3.08-1.32v-.76c0-1.37-.58-2.69-1.6-3.61a4.847 4.847 0 0 0-3.76-1.25c-2.39.23-4.4 2.54-4.4 5.04v.58c-1.4.15-2.41.58-3.08 1.32-.97 1.08-.94 2.52-.83 3.52l.7 5.57c.21 1.95 1 3.95 5.3 3.95h5.58c4.3 0 5.09-2 5.3-3.94l.7-5.59c.11-.99.13-2.43-.83-3.51Zm-8.3-5.55a3.482 3.482 0 0 1 3.83 3.47v.7H8.51v-.52c0-1.78 1.47-3.49 3.15-3.65Zm-3.24 9.74h-.01c-.55 0-1-.45-1-1s.45-1 1-1c.56 0 1.01.45 1.01 1s-.45 1-1 1Zm7 0h-.01c-.55 0-1-.45-1-1s.45-1 1-1c.56 0 1.01.45 1.01 1s-.45 1-1 1Z" fill="#292D32"/>
</svg>
